X:50
T:A different set of Kate Carnagie
Z:Jack Campin - http://www.campin.me.uk
S:Blaikie MS (NLS MS.1578) p17, no Blaikie #
M:2/4
L:1/8
V:1 midi program 1 74
V:2 midi program 1 46 bass middle = d transpose -24
Q:1/4=90
K:D
[V:1] A|Bc`dB|BA FF/A/|Bd`c>B|B3  d|D>E`FA|FE`EA|F>E`DF|A3|]
[V:2] z|g2 G2|d2 d2   |G2 g2 |G2 g2|fe``dd|A2 c2|d2  d2|A3|]
W:Transcription (c) Jack Campin 2009, no mirroring or republication without permission

